pro/src/icons/stroke-collaborator.svg

<svg width="48" height="48" viewBox="0 0 48 48" fill="none" xmlns="http://www.w3.org/2000/svg">
  <path id="icon" fill="currentColor" fill-rule="evenodd" clip-rule="evenodd"
    d="M11.5148 11.413C11.5148 8.54751 13.8182 6.22205 16.6628 6.22205H16.7068C19.5514 6.22205 21.8548 8.54751 21.8548 11.413V15.995C21.8548 18.8605 19.5514 21.1859 16.7068 21.1859H16.6628C13.8182 21.1859 11.5148 18.8605 11.5148 15.995V11.413ZM16.6628 4C12.6061 4 9.31485 7.31741 9.31485 11.413V15.995C9.31485 20.0905 12.6061 23.4079 16.6628 23.4079H16.7068C20.7636 23.4079 24.0548 20.0905 24.0548 15.995V11.413C24.0548 7.31741 20.7636 4 16.7068 4H16.6628ZM30.3249 14.4528C30.3249 12.4575 31.9289 10.8374 33.9108 10.8374H33.9438C35.9258 10.8374 37.5298 12.4575 37.5298 14.4528V18.2916C37.5298 20.2869 35.9258 21.907 33.9438 21.907H33.9108C31.9289 21.907 30.3249 20.2869 30.3249 18.2916V14.4528ZM33.9108 8.61539C30.7168 8.61539 28.1249 11.2275 28.1249 14.4528V18.2916C28.1249 21.5171 30.7168 24.1291 33.9108 24.1291H33.9438C37.1379 24.1291 39.7298 21.5171 39.7298 18.2916V14.4528C39.7298 11.2275 37.1379 8.61539 33.9438 8.61539H33.9108ZM2.06095 36.2335C4.2245 29.945 9.91116 24.7585 16.8719 24.7585C23.8645 24.7585 29.158 29.9817 31.3089 36.2335C31.4082 36.5224 31.3854 36.8398 31.2457 37.111C28.9307 41.6051 23.4661 44 16.8719 44C15.2228 44 13.6238 43.8256 12.121 43.4848C11.5283 43.3505 11.1556 42.7561 11.2887 42.1575C11.4218 41.5587 12.0102 41.1823 12.6028 41.3168C13.9381 41.6195 15.3751 41.778 16.8719 41.778C22.8085 41.778 27.1521 39.7137 29.0644 36.4997C27.0339 31.0851 22.5019 26.9805 16.8719 26.9805C11.2161 26.9805 6.35124 31.1127 4.31072 36.4884C4.83618 37.2946 5.54858 37.8247 6.71741 38.6943L6.84363 38.7882C7.33265 39.1523 7.43689 39.8479 7.07644 40.3417C6.716 40.8357 6.02736 40.941 5.53833 40.5769C5.45348 40.5137 5.36904 40.4512 5.2851 40.3889C4.04633 39.471 2.91592 38.6333 2.12619 37.1149C1.9847 36.8429 1.96108 36.5238 2.06095 36.2335ZM33.9331 26.0676C32.5331 26.0676 31.1857 26.2849 29.9286 26.6994C29.3511 26.8899 29.0359 27.517 29.2244 28.1004C29.413 28.6837 30.0339 29.0022 30.6114 28.8117C31.6424 28.4718 32.759 28.2897 33.9331 28.2897C38.4215 28.2897 42.0842 30.6759 43.6722 34.402C42.9385 35.4613 41.6699 36.4659 39.9914 37.2391C38.1057 38.1077 35.7977 38.6381 33.4051 38.6381C32.7975 38.6381 32.3051 39.1355 32.3051 39.7491C32.3051 40.3627 32.7975 40.8601 33.4051 40.8601C36.1054 40.8601 38.7254 40.2644 40.9042 39.2608C43.0652 38.2653 44.8899 36.8213 45.8619 35.0512C46.0173 34.7683 46.0429 34.431 45.9319 34.1274C44.1197 29.1714 39.4567 26.0676 33.9331 26.0676Z"
  />
</svg>

<svg xmlns="http://www.w3.org/2000/svg" width="48" height="48" fill="none"><path id="icon" fill="currentColor" fill-rule="evenodd" d="M11.515 11.413c0-2.865 2.303-5.19 5.148-5.19h.044c2.844 0 5.148 2.325 5.148 5.19v4.582c0 2.865-2.304 5.19-5.148 5.19h-.044c-2.845 0-5.148-2.325-5.148-5.19zM16.663 4c-4.057 0-7.348 3.317-7.348 7.413v4.582c0 4.095 3.291 7.413 7.348 7.413h.044c4.057 0 7.348-3.318 7.348-7.413v-4.582C24.055 7.317 20.764 4 16.707 4zm13.662 10.453c0-1.995 1.604-3.616 3.586-3.616h.033c1.982 0 3.586 1.62 3.586 3.616v3.839c0 1.995-1.604 3.615-3.586 3.615h-.033c-1.982 0-3.586-1.62-3.586-3.615zm3.586-5.838c-3.194 0-5.786 2.612-5.786 5.838v3.839c0 3.225 2.592 5.837 5.786 5.837h.033c3.194 0 5.786-2.612 5.786-5.837v-3.84c0-3.225-2.592-5.837-5.786-5.837zM2.06 36.234c2.164-6.289 7.85-11.475 14.81-11.475 6.994 0 12.287 5.223 14.438 11.474.1.29.076.607-.063.878C28.93 41.605 23.466 44 16.872 44c-1.65 0-3.248-.174-4.751-.515a1.11 1.11 0 0 1-.832-1.328 1.1 1.1 0 0 1 1.314-.84 19.4 19.4 0 0 0 4.269.461c5.936 0 10.28-2.064 12.192-5.278-2.03-5.415-6.562-9.52-12.192-9.52-5.656 0-10.52 4.133-12.561 9.508.525.807 1.238 1.337 2.406 2.206l.127.094c.489.364.593 1.06.232 1.554-.36.494-1.049.599-1.538.235l-.253-.188c-1.239-.918-2.37-1.756-3.159-3.274a1.12 1.12 0 0 1-.065-.882m31.872-10.166c-1.4 0-2.747.217-4.004.631-.578.19-.893.818-.705 1.401s.81.902 1.387.712a10.6 10.6 0 0 1 3.322-.522c4.489 0 8.151 2.386 9.74 6.112-.735 1.06-2.003 2.064-3.682 2.837-1.885.869-4.193 1.4-6.586 1.4-.608 0-1.1.496-1.1 1.11s.492 1.111 1.1 1.111c2.7 0 5.32-.596 7.5-1.6 2.16-.995 3.985-2.439 4.957-4.209a1.12 1.12 0 0 0 .07-.924c-1.812-4.956-6.475-8.06-11.999-8.06" clip-rule="evenodd"/></svg>
